packages/kaspersky-hexa-ui-icons/src/iconsSVGs/32/TouchId.svg

<svg width="32" height="32" viewBox="0 0 32 32" fill="none" xmlns="http://www.w3.org/2000/svg">
<path d="M5.22481 10.7137C5.71728 9.87209 6.96513 8.46401 8.83632 7.2709C10.6906 6.08856 13.0966 5.1562 15.8952 5.16833C18.9537 5.18159 21.2096 5.91692 22.9221 6.95685C24.6419 8.00123 25.8669 9.38545 26.812 10.7719C27.1231 11.2282 27.7452 11.346 28.2015 11.0349C28.6579 10.7239 28.7756 10.1018 28.4646 9.64541C27.4158 8.10685 25.9981 6.4849 23.9602 5.24737C21.915 4.00539 19.2985 3.18306 15.9039 3.16835C12.6455 3.15423 9.86851 4.24078 7.76105 5.58454C5.6705 6.91753 4.17791 8.54273 3.49862 9.7036C3.2197 10.1803 3.38 10.7928 3.85668 11.0717C4.33335 11.3507 4.94589 11.1904 5.22481 10.7137Z" fill="black"/>
<path d="M16.9206 18.3076C16.9005 17.7557 16.4368 17.3246 15.8849 17.3447C15.3329 17.3648 14.9018 17.8285 14.9219 18.3804C14.9697 19.6921 15.4622 21.4549 16.6236 22.9128C17.8149 24.408 19.6884 25.5494 22.37 25.5567C22.9223 25.5582 23.3712 25.1117 23.3727 24.5595C23.3743 24.0072 22.9278 23.5582 22.3755 23.5567C20.3318 23.5511 19.0205 22.7116 18.1879 21.6665C17.3254 20.584 16.9548 19.2469 16.9206 18.3076Z" fill="black"/>
<path d="M21.8675 10.5672C20.2297 9.18543 17.8115 8.27088 14.169 8.88747C10.4043 9.52476 8.33129 11.7925 7.33909 14.383C6.32345 17.0346 6.46316 19.9838 7.15237 21.7696C7.35122 22.2848 7.09473 22.8637 6.57949 23.0626C6.06424 23.2614 5.48535 23.0049 5.2865 22.4897C4.41311 20.2266 4.28474 16.7658 5.4714 13.6676C6.68149 10.5083 9.28115 7.68642 13.8352 6.91552C18.0116 6.20856 21.0351 7.24827 23.1572 9.03854C25.239 10.7949 26.3567 13.1906 26.933 15.0634C27.3571 16.4413 27.4436 18.0931 26.9379 19.487C26.6808 20.1957 26.2611 20.8605 25.6318 21.3659C24.9966 21.8758 24.1994 22.1815 23.2626 22.2447C22.4048 22.3025 21.339 22.1177 20.4072 21.5067C19.4447 20.8756 18.6884 19.829 18.4498 18.3074C18.2001 16.7156 17.5701 16.0919 17.0493 15.8199C16.4681 15.5163 15.7837 15.5255 15.2788 15.6166C14.9038 15.6843 13.9651 16.1759 13.5293 17.301C13.1158 18.3686 13.0765 20.2421 14.9409 23.1996C16.7752 26.1091 20.0147 26.7485 21.9514 26.8327C22.5032 26.8567 22.9311 27.3234 22.9071 27.8752C22.8831 28.427 22.4163 28.8548 21.8646 28.8308C19.7172 28.7374 15.6175 28.023 13.2491 24.2662C11.183 20.9888 10.9436 18.4391 11.6643 16.5786C12.3627 14.7757 13.8924 13.8345 14.9236 13.6484C15.6418 13.5188 16.8379 13.453 17.9753 14.0472C19.1731 14.6729 20.0997 15.9195 20.4256 17.9976C20.5787 18.9734 21.024 19.5196 21.5038 19.8342C22.0143 20.1689 22.6315 20.2827 23.1282 20.2492C23.6959 20.2109 24.0931 20.0364 24.3796 19.8063C24.6719 19.5717 24.9012 19.2367 25.0578 18.805C25.3795 17.9182 25.3524 16.7266 25.0215 15.6517C24.5061 13.9769 23.5456 11.9829 21.8675 10.5672Z" fill="black"/>
<path d="M10.0263 17.6244C10.5892 14.3225 12.5457 12.7911 14.5916 12.3168C16.748 11.817 18.9477 12.4913 19.9494 13.5801C21.0986 14.8291 21.6456 16.0453 21.9387 17.9343C22.0233 18.48 22.5344 18.8538 23.0802 18.7691C23.6259 18.6844 23.9997 18.1734 23.915 17.6276C23.5708 15.4091 22.8781 13.8093 21.4212 12.2259C19.8328 10.4995 16.8423 9.74209 14.14 10.3685C11.3271 11.0205 8.75627 13.1734 8.05476 17.2883C7.65738 19.6193 8.21739 21.981 9.02508 23.8524C9.4321 24.7954 9.91252 25.6389 10.394 26.3215C10.8635 26.9872 11.3758 27.5594 11.8667 27.9024C12.3194 28.2188 12.9428 28.1082 13.2592 27.6555C13.5755 27.2028 13.465 26.5794 13.0123 26.263C12.7948 26.1111 12.4396 25.7518 12.0283 25.1687C11.6291 24.6027 11.2155 23.8804 10.8613 23.0598C10.1467 21.404 9.71551 19.4475 10.0263 17.6244Z" fill="black"/>
</svg>

<svg xmlns="http://www.w3.org/2000/svg" width="32" height="32" fill="none" viewBox="0 0 32 32"><path fill="#000" fill-rule="evenodd" d="M5.2246 10.7137C5.717 9.8721 6.9649 8.464 8.836 7.2709c1.8543-1.1823 4.2603-2.1147 7.0589-2.1026 3.0585.0133 5.3144.7486 7.0269 1.7886 1.7197 1.0443 2.9448 2.4286 3.8899 3.815.311.4563.9331.5741 1.3895.263.4563-.311.5741-.9331.263-1.3895-1.0487-1.5386-2.4665-3.1605-4.5043-4.398-2.0452-1.242-4.6617-2.0643-8.0563-2.079-3.2584-.0142-6.0354 1.0724-8.1429 2.4161-2.0905 1.333-3.5831 2.9582-4.2624 4.1191-.279.4767-.1186 1.0892.358 1.3681.4767.279 1.0893.1187 1.3682-.358m16.6427-.1465c-1.6379-1.3818-4.056-2.2963-7.6985-1.6797-3.7647.6373-5.8377 2.905-6.83 5.4955-1.0156 2.6516-.8759 5.6008-.1867 7.3866.1989.5152-.0576 1.0941-.5728 1.293s-1.0942-.0577-1.293-.5729c-.8734-2.2631-1.0018-5.7239.1849-8.8221 1.21-3.1593 3.8097-5.9812 8.3638-6.752 4.1764-.707 7.1999.3327 9.3219 2.123 2.0819 1.7563 3.1995 4.152 3.7759 6.0248.4241 1.3779.5106 3.0297.0049 4.4236-.2571.7087-.6768 1.3735-1.3062 1.8789-.6351.5099-1.4323.8156-2.3691.8788-.8578.0578-1.9236-.127-2.8555-.738-.9624-.6311-1.7187-1.6777-1.9573-3.1993-.2497-1.5918-.8798-2.2155-1.4005-2.4875-.5813-.3036-1.2656-.2944-1.7705-.2033-.3751.0677-1.3137.5593-1.7495 1.6844-.4136 1.0676-.4529 2.9411 1.4116 5.8986 1.8343 2.9095 5.0738 3.5489 7.0105 3.6331.5518.024.9796.4907.9556 1.0425s-.4907.9796-1.0425.9556c-2.1473-.0934-6.2471-.8078-8.6155-4.5646-2.0661-3.2774-2.3054-5.8271-1.5847-7.6876.6983-1.8029 2.2281-2.7441 3.2593-2.9302.7182-.1296 1.9143-.1954 3.0517.3988 1.1978.6257 2.1244 1.8723 2.4503 3.9504.1531.9758.5984 1.522 1.0782 1.8366.5104.3347 1.1276.4485 1.6243.415.5678-.0383.965-.2128 1.2515-.4429.2923-.2346.5215-.5696.6782-1.0013.3217-.8868.2945-2.0784-.0363-3.1533-.5154-1.6748-1.476-3.6688-3.154-5.0845m-7.2759 1.7496c-2.046.4743-4.0024 2.0057-4.5653 5.3076-.3108 1.8231.1203 3.7796.835 5.4354.3542.8206.7677 1.5429 1.167 2.1089.4112.5831.7665.9424.9839 1.0943.4527.3164.5633.9398.2469 1.3925s-.9398.5633-1.3925.2469c-.4908-.343-1.0031-.9152-1.4726-1.5809-.4815-.6826-.962-1.5261-1.369-2.4691-.8076-1.8714-1.3677-4.2331-.9703-6.5641.7015-4.1149 3.2724-6.2678 6.0852-6.9198 2.7023-.6264 5.6929.131 7.2813 1.8574 1.4569 1.5834 2.1495 3.1832 2.4938 5.4017.0847.5458-.2891 1.0568-.8349 1.1415s-1.0568-.2891-1.1415-.8348c-.2931-1.889-.84-3.1052-1.9892-4.3542-1.0017-1.0888-3.2014-1.7631-5.3578-1.2633m1.2932 5.0279c.5519-.0201 1.0157.411 1.0358.9629.0342.9393.4048 2.2764 1.2672 3.3589.8327 1.0451 2.1439 1.8846 4.1877 1.8902.5522.0015.9987.4505.9972 1.0028s-.4504.9987-1.0027.9972c-2.6816-.0073-4.5551-1.1487-5.7464-2.6439-1.1615-1.4579-1.6539-3.2207-1.7017-4.5324-.0201-.5519.411-1.0156.9629-1.0357"/></svg>
